Origami/48x48/apps/swatchbooker.svg

<svg width="48" height="48" version="1.1" viewBox="0 0 48 48" xmlns="http://www.w3.org/2000/svg">
 <rect x="4" y="31" width="40" height="14" rx="7" ry="7" style="opacity:.2"/>
 <path d="m24.191406 8.4746094c-2.481358-0.0670243-4.914984 1.1930211-6.248047 3.5019526l-13 22.517579c-0.6402602 1.108963-0.9380807 2.315628-0.9375 3.505859h8.9941406v5.303c1.654951-0.491674 3.133004-0.188777 4.068359-1.808859l13-22.517579c1.939-3.358446 0.795947-7.621546-2.5625-9.5605464-1.049514-0.6059375-2.186563-0.9109407-3.314453-0.9414062z" style="opacity:.2"/>
 <path d="m33.439453 17.867188c-1.12789 0.03046-2.266892 0.335468-3.316406 0.941406l-22.515625 13c-2.2918914 1.323224-3.5490301 3.729137-3.5019531 6.191406h8.8945312l2.89e-4 4.705938c0.548658-0.155604 1.089971-0.373125 1.607422-0.671875l22.515336-11.100469c3.358446-1.939 4.5015-6.204054 2.5625-9.5625-1.333063-2.308932-3.764736-3.570931-6.246094-3.503906z" style="opacity:.2"/>
 <path d="m11 4c-3.878 0-7 3.122-7 7v26h9v6.707031c2.89657-0.857123 5-3.525198 5-6.707031v-26c0-3.878-3.122-7-7-7z" style="fill:#4f4f4f"/>
 <path d="m24.191406 7.4746094c-2.481358-0.0670243-4.914984 1.1930211-6.248047 3.5019526l-13 22.517579c-0.6402602 1.108963-0.9380807 2.315628-0.9375 3.505859h8.9941406v6.703125c1.654951-0.491674 3.133004-1.588902 4.068359-3.208984l13-22.517579c1.939-3.358446 0.795947-7.621546-2.5625-9.5605464-1.049514-0.6059375-2.186563-0.9109407-3.314453-0.9414062z" style="fill:#4d4e99"/>
 <path d="m33.439453 16.867188c-1.12789 0.030465-2.266892 0.335468-3.316406 0.941406l-22.515625 13c-2.2918914 1.323224-3.5490301 3.729137-3.5019531 6.191406h8.8945312v6.605469c0.548658-0.155604 1.089971-0.373125 1.607422-0.671875l22.515625-13c3.358446-1.939 4.5015-6.204054 2.5625-9.5625-1.333063-2.308932-3.764736-3.570931-6.246094-3.503906z" style="fill:#e74949"/>
 <rect x="4" y="30" width="40" height="14" rx="7" ry="7" style="fill:#ffc255"/>
 <path d="m11 4c-3.878 0-7 3.122-7 7v1c0-3.878 3.122-7 7-7s7 3.122 7 7v-1c0-3.878-3.122-7-7-7z" style="fill:#ffffff;opacity:.1"/>
 <path d="m24.191406 7.4746094c-2.481358-0.0670243-4.914984 1.1930211-6.248047 3.5019526l-13 22.517579c-0.7359869 1.274766-1.0245684 2.679898-0.9199219 4.039062 0.0692452-1.036878 0.36337-2.075086 0.9199219-3.039062l13-22.517579c1.939-3.358446 6.204054-4.4995464 9.5625-2.5605464 2.081821 1.2019394 3.311588 3.2961964 3.484375 5.5156254 0.169358-2.573303-1.091981-5.1343761-3.484375-6.5156254-1.049514-0.6059375-2.186563-0.9109407-3.314453-0.9414062z" style="fill:#ffffff;opacity:.1"/>
 <path d="m33.439453 16.867188c-1.12789 0.030465-2.266892 0.335468-3.316406 0.941406l-22.515625 13c-2.3929954 1.381596-3.6544979 3.943622-3.484375 6.517578 0.1727415-2.219488 1.4025051-4.31561 3.484375-5.517578l22.515625-13c3.358446-1.939 7.6235-0.795947 9.5625 2.5625 0.557612 0.965813 0.853389 2.006075 0.921875 3.044922 0.105923-1.360962-0.184843-2.768346-0.921875-4.044922-1.333063-2.308932-3.764736-3.570931-6.246094-3.503906z" style="fill:#ffffff;opacity:.1"/>
 <path d="m11 30c-3.878 0-7 3.122-7 7 0 0.169082 0.0137169 0.333988 0.0253906 0.5 0.2560696-3.641566 3.2656919-6.5 6.9746094-6.5h26c3.708918 0 6.71854 2.858434 6.974609 6.5 0.011674-0.166012 0.025391-0.330918 0.025391-0.5 0-3.878-3.122-7-7-7h-26z" style="fill:#ffffff;opacity:.1"/>
 <circle cx="11" cy="38" r="3" style="opacity:.2"/>
 <circle cx="11" cy="37" r="3" style="fill:#ffffff"/>
</svg>

<svg xmlns="http://www.w3.org/2000/svg" width="48" height="48" version="1.1" viewBox="0 0 48 48">
 <rect style="opacity:0.2" width="40" height="14" x="4" y="31" rx="7" ry="7"/>
 <path style="opacity:0.2" d="M 24.191406,8.4746094 C 21.710048,8.4075851 19.276422,9.6676305 17.943359,11.976562 L 4.9433594,34.494141 C 4.3030992,35.603104 4.0052787,36.809769 4.0058594,38 L 13,38 l 0,5.303 c 1.654951,-0.491674 3.133004,-0.188777 4.068359,-1.808859 l 13,-22.517579 c 1.939,-3.358446 0.795947,-7.621546 -2.5625,-9.5605464 C 26.456345,8.8100781 25.319296,8.5050749 24.191406,8.4746094 Z"/>
 <path style="opacity:0.2" d="m 33.439453,17.867188 c -1.12789,0.03046 -2.266892,0.335468 -3.316406,0.941406 l -22.5156251,13 C 5.3155305,33.131818 4.0583918,35.537731 4.1054688,38 L 13,38 l 2.89e-4,4.705938 c 0.548658,-0.155604 1.089971,-0.373125 1.607422,-0.671875 L 37.123047,30.933594 c 3.358446,-1.939 4.5015,-6.204054 2.5625,-9.5625 -1.333063,-2.308932 -3.764736,-3.570931 -6.246094,-3.503906 z"/>
 <path style="fill:#4f4f4f" d="M 11 4 C 7.122 4 4 7.122 4 11 L 4 37 L 13 37 L 13 43.707031 C 15.89657 42.849908 18 40.181833 18 37 L 18 11 C 18 7.122 14.878 4 11 4 z"/>
 <path style="fill:#4d4e99" d="M 24.191406 7.4746094 C 21.710048 7.4075851 19.276422 8.6676305 17.943359 10.976562 L 4.9433594 33.494141 C 4.3030992 34.603104 4.0052787 35.809769 4.0058594 37 L 13 37 L 13 43.703125 C 14.654951 43.211451 16.133004 42.114223 17.068359 40.494141 L 30.068359 17.976562 C 32.007359 14.618116 30.864306 10.355016 27.505859 8.4160156 C 26.456345 7.8100781 25.319296 7.5050749 24.191406 7.4746094 z"/>
 <path style="fill:#e74949" d="M 33.439453 16.867188 C 32.311563 16.897653 31.172561 17.202656 30.123047 17.808594 L 7.6074219 30.808594 C 5.3155305 32.131818 4.0583918 34.537731 4.1054688 37 L 13 37 L 13 43.605469 C 13.548658 43.449865 14.089971 43.232344 14.607422 42.933594 L 37.123047 29.933594 C 40.481493 27.994594 41.624547 23.72954 39.685547 20.371094 C 38.352484 18.062162 35.920811 16.800163 33.439453 16.867188 z"/>
 <rect style="fill:#ffc255" width="40" height="14" x="4" y="30" rx="7" ry="7"/>
 <path style="opacity:0.1;fill:#ffffff" d="M 11 4 C 7.122 4 4 7.122 4 11 L 4 12 C 4 8.122 7.122 5 11 5 C 14.878 5 18 8.122 18 12 L 18 11 C 18 7.122 14.878 4 11 4 z"/>
 <path style="opacity:0.1;fill:#ffffff" d="M 24.191406 7.4746094 C 21.710048 7.4075851 19.276422 8.6676305 17.943359 10.976562 L 4.9433594 33.494141 C 4.2073725 34.768907 3.918791 36.174039 4.0234375 37.533203 C 4.0926827 36.496325 4.3868075 35.458117 4.9433594 34.494141 L 17.943359 11.976562 C 19.882359 8.618116 24.147413 7.4770156 27.505859 9.4160156 C 29.58768 10.617955 30.817447 12.712212 30.990234 14.931641 C 31.159592 12.358338 29.898253 9.7972649 27.505859 8.4160156 C 26.456345 7.8100781 25.319296 7.5050749 24.191406 7.4746094 z"/>
 <path style="opacity:0.1;fill:#ffffff" d="M 33.439453 16.867188 C 32.311563 16.897653 31.172561 17.202656 30.123047 17.808594 L 7.6074219 30.808594 C 5.2144265 32.19019 3.952924 34.752216 4.1230469 37.326172 C 4.2957884 35.106684 5.525552 33.010562 7.6074219 31.808594 L 30.123047 18.808594 C 33.481493 16.869594 37.746547 18.012647 39.685547 21.371094 C 40.243159 22.336907 40.538936 23.377169 40.607422 24.416016 C 40.713345 23.055054 40.422579 21.64767 39.685547 20.371094 C 38.352484 18.062162 35.920811 16.800163 33.439453 16.867188 z"/>
 <path style="opacity:0.1;fill:#ffffff" d="M 11 30 C 7.122 30 4 33.122 4 37 C 4 37.169082 4.0137169 37.333988 4.0253906 37.5 C 4.2814602 33.858434 7.2910825 31 11 31 L 37 31 C 40.708918 31 43.71854 33.858434 43.974609 37.5 C 43.986283 37.333988 44 37.169082 44 37 C 44 33.122 40.878 30 37 30 L 11 30 z"/>
 <circle style="opacity:0.2" cx="11" cy="38" r="3"/>
 <circle style="fill:#ffffff" cx="11" cy="37" r="3"/>
</svg>
